**harm	**harte	**timestamp	**phrase	**leadinstrument	**kern
*M4/4	*M4/4	*	*	*	*
*D-:	*D-:	*	*	*	*D-:
1r;	N	0	.	r	1r;
=1	=1	=1	=1	=1	=1
*>A_intro	*>A_intro	*>A_intro	*>A_intro	*>A_intro	*>A_intro
2.I	D-:maj(9)	0.418	newline	synthesizer	2D- 2f 2a-
4Vb	A-:maj/3	3.464	.	synthesizer	4a- 4C 4ee-
=2	=2	=2	=2	=2	=2
1vi7	B-:min11	4.48	.	synthesizer	1B- 1dd- 1ff 1aa-
=3	=3	=3	=3	=3	=3
1IV	G-:maj6(9)	8.542	.	synthesizer	1G- 1b- 1dd-
=4	=4	=4	=4	=4	=4
1V	A-:sus4(b7)	12.604	.	synthesizer	1A- 1cc 1ee-
=5	=5	=5	=5	=5	=5
1I	D-:maj(9)	16.666	newline	synthesizer	1D- 1f 1a-
=6	=6	=6	=6	=6	=6
1I	D-:maj(9)	20.393	.	synthesizer	1D- 1f 1a-
=7	=7	=7	=7	=7	=7
*>B_verse	*>B_verse	*>B_verse	*>B_verse	*>B_verse	*>B_verse
2.I	D-:maj(9)	24.119	newline	voice	2D- 2f 2a-
4Vb	A-:maj/3	26.929	.	voice	4a- 4C 4ee-
=8	=8	=8	=8	=8	=8
1vi7	B-:min11	27.865	.	voice	1B- 1dd- 1ff 1aa-
=9	=9	=9	=9	=9	=9
2.IV7	G-:maj13	31.611	.	voice	2G- 2b- 2dd- 2ff
4iii7	F:min7	34.421	.	voice	4F 4a- 4cc 4ee-
=10	=10	=10	=10	=10	=10
2ii	E-:sus4(b7)	35.357	.	voice	2E- 2g- 2b-
2V	A-:sus4(b7)	37.23	.	voice	2A- 2cc 2ee-
=11	=11	=11	=11	=11	=11
2.I	D-:maj(9)	39.103	newline	voice	2D- 2f 2a-
4Vb	A-:maj/3	41.915	.	voice	4a- 4C 4ee-
=12	=12	=12	=12	=12	=12
1vi7	B-:min11	42.852	.	voice	1B- 1dd- 1ff 1aa-
=13	=13	=13	=13	=13	=13
2.IV7	G-:maj13	46.602	.	voice	2G- 2b- 2dd- 2ff
4iii7	F:min7	49.414	.	voice	4F 4a- 4cc 4ee-
=14	=14	=14	=14	=14	=14
1ii7	E-:min7	50.352	.	voice	1E- 1g- 1b- 1dd-
=15	=15	=15	=15	=15	=15
*>C_prechorus	*>C_prechorus	*>C_prechorus	*>C_prechorus	*>C_prechorus	*>C_prechorus
1iii7	F:min11	54.101	newline	voice	1F 1a- 1cc 1ee-
=16	=16	=16	=16	=16	=16
1vi7	B-:min9	57.858	.	voice	1B- 1dd- 1ff 1aa-
=17	=17	=17	=17	=17	=17
1ii7	E-:min9	61.614	.	voice	1E- 1g- 1b- 1dd-
=18	=18	=18	=18	=18	=18
1V	A-:sus4(b7,9)	65.371	.	voice	1A- 1cc 1ee-
=19	=19	=19	=19	=19	=19
*>A_chorus	*>A_chorus	*>A_chorus	*>A_chorus	*>A_chorus	*>A_chorus
2.I	D-:maj(9)	69.128	newline	voice	2D- 2f 2a-
4Vb	A-:maj/3	71.944	.	voice	4a- 4C 4ee-
=20	=20	=20	=20	=20	=20
2.vi7	B-:min11	72.883	.	voice	2B- 2dd- 2ff 2aa-
4vi7d	B-:min11/b7	75.699	.	voice	4b- 4dd- 4ff 4A-
=21	=21	=21	=21	=21	=21
1IV	G-:maj6(9)	76.638	.	voice	1G- 1b- 1dd-
=22	=22	=22	=22	=22	=22
1V	A-:sus4(b7)	80.393	.	voice	1A- 1cc 1ee-
=23	=23	=23	=23	=23	=23
1I	D-:maj(9)	84.148	newline	voice	1D- 1f 1a-
=24	=24	=24	=24	=24	=24
1I	D-:maj(9)	87.883	.	voice	1D- 1f 1a-
=25	=25	=25	=25	=25	=25
*>B_verse	*>B_verse	*>B_verse	*>B_verse	*>B_verse	*>B_verse
2.I	D-:maj(9)	91.618	newline	voice	2D- 2f 2a-
4Vb	A-:maj/3	94.434	.	voice	4a- 4C 4ee-
=26	=26	=26	=26	=26	=26
1vi7	B-:min11	95.372	.	voice	1B- 1dd- 1ff 1aa-
=27	=27	=27	=27	=27	=27
2.IV7	G-:maj13	99.126	.	voice	2G- 2b- 2dd- 2ff
4iii7	F:min7	101.942	.	voice	4F 4a- 4cc 4ee-
=28	=28	=28	=28	=28	=28
2ii	E-:sus4(b7)	102.88	.	voice	2E- 2g- 2b-
2V	A-:sus4(b7,9)	104.757	.	voice	2A- 2cc 2ee-
=29	=29	=29	=29	=29	=29
2.I	D-:maj(9)	106.634	newline	voice	2D- 2f 2a-
4Vb	A-:maj/3	109.436	.	voice	4a- 4C 4ee-
=30	=30	=30	=30	=30	=30
1vi7	B-:min11	110.37	.	voice	1B- 1dd- 1ff 1aa-
=31	=31	=31	=31	=31	=31
2.IV7	G-:maj13	114.105	.	voice	2G- 2b- 2dd- 2ff
4iii7	F:min7	116.906	.	voice	4F 4a- 4cc 4ee-
=32	=32	=32	=32	=32	=32
1ii7	E-:min7	117.84	.	voice	1E- 1g- 1b- 1dd-
=33	=33	=33	=33	=33	=33
*>C_prechorus	*>C_prechorus	*>C_prechorus	*>C_prechorus	*>C_prechorus	*>C_prechorus
1iii7	F:min11	121.575	newline	voice	1F 1a- 1cc 1ee-
=34	=34	=34	=34	=34	=34
1vi7	B-:min9	125.34	.	voice	1B- 1dd- 1ff 1aa-
=35	=35	=35	=35	=35	=35
1ii7	E-:min9	129.106	.	voice	1E- 1g- 1b- 1dd-
=36	=36	=36	=36	=36	=36
1V	A-:sus4(b7,9)	132.871	.	voice	1A- 1cc 1ee-
=37	=37	=37	=37	=37	=37
*>A2_chorus	*>A2_chorus	*>A2_chorus	*>A2_chorus	*>A2_chorus	*>A2_chorus
2.I	D-:maj(9)	136.636	newline	voice	2D- 2f 2a-
4Vb	A-:maj/3	139.439	.	voice	4a- 4C 4ee-
=38	=38	=38	=38	=38	=38
2.vi7	B-:min11	140.373	.	voice	2B- 2dd- 2ff 2aa-
4vi7d	B-:min11/b7	143.175	.	voice	4b- 4dd- 4ff 4A-
=39	=39	=39	=39	=39	=39
1IV	G-:maj6(9)	144.11	.	voice	1G- 1b- 1dd-
=40	=40	=40	=40	=40	=40
1V	A-:sus4(b7)	147.847	.	voice	1A- 1cc 1ee-
=41	=41	=41	=41	=41	=41
2.I	D-:maj(9)	151.583	newline	voice	2D- 2f 2a-
4Vb	A-:maj/3	154.413	.	voice	4a- 4C 4ee-
=42	=42	=42	=42	=42	=42
2.vi7	B-:min11	155.356	.	voice	2B- 2dd- 2ff 2aa-
4vi7d	B-:min11/b7	158.185	.	voice	4b- 4dd- 4ff 4A-
=43	=43	=43	=43	=43	=43
1IV	G-:maj6(9)	159.128	.	voice	1G- 1b- 1dd-
=44	=44	=44	=44	=44	=44
1V	A-:sus4(b7)	162.9	.	voice	1A- 1cc 1ee-
=45	=45	=45	=45	=45	=45
1I	D-:maj(9)	166.673	newline	voice	1D- 1f 1a-
=46	=46	=46	=46	=46	=46
1Id	D-:maj/b7	170.41	.	voice	1d- 1f 1a-
=47	=47	=47	=47	=47	=47
*>D_bridge	*>D_bridge	*>D_bridge	*>D_bridge	*>D_bridge	*>D_bridge
1IV7	G-:maj13	174.147	newline	voice	1G- 1b- 1dd- 1ff
=48	=48	=48	=48	=48	=48
2iii7	F:min7	177.897	.	voice	2F 2a- 2cc 2ee-
4vi7	B-:min7	179.773	.	voice	4B- 4dd- 4ff 4aa-
4V	A-:maj	180.71	.	voice	4A- 4cc 4ee-
=49	=49	=49	=49	=49	=49
1IV7	G-:maj13	181.648	.	voice	1G- 1b- 1dd- 1ff
=50	=50	=50	=50	=50	=50
2iii7	F:min7	185.399	.	voice	2F 2a- 2cc 2ee-
2vi7	B-:min7	187.274	.	voice	2B- 2dd- 2ff 2aa-
=51	=51	=51	=51	=51	=51
1IV7	G-:maj13	189.15	newline	voice	1G- 1b- 1dd- 1ff
=52	=52	=52	=52	=52	=52
2iii7	F:min7	192.902	.	voice	2F 2a- 2cc 2ee-
2vi7	B-:min7	194.779	.	voice	2B- 2dd- 2ff 2aa-
=53	=53	=53	=53	=53	=53
2V	A-:sus4(b7,9)	196.655	.	voice	2A- 2cc 2ee-
2V	A-:maj	198.531	.	voice	2A- 2cc 2ee-
=54	=54	=54	=54	=54	=54
2V	A-:sus4(b7,9)	200.408	.	voice	2A- 2cc 2ee-
2V	A-:maj	202.284	.	voice	2A- 2cc 2ee-
=55	=55	=55	=55	=55	=55
*D:	*D:	*	*	*	*D:
2V	A:sus4(b7)	204.16	newline	voice	2A 2cc# 2ee
2V	A:maj	206.025	.	voice	2A 2cc# 2ee
=56	=56	=56	=56	=56	=56
1V	A:sus4(b7)	207.889	.	voice	1A 1cc# 1ee
=57	=57	=57	=57	=57	=57
*>A_chorus	*>A_chorus	*>A_chorus	*>A_chorus	*>A_chorus	*>A_chorus
2.I	D:maj(9)	211.618	newline	voice	2D 2f# 2a
4Vb	A:maj/3	214.426	.	voice	4a 4C# 4ee
=58	=58	=58	=58	=58	=58
2.vi7	B:min11	215.362	.	voice	2B 2dd 2ff# 2aa
4vi7d	B:min11/b7	218.171	.	voice	4b 4dd 4ff# 4A
=59	=59	=59	=59	=59	=59
1IV	G:maj6(9)	219.107	.	voice	1G 1b 1dd
=60	=60	=60	=60	=60	=60
2ii7	E:min7	222.852	.	voice	2E 2g 2b 2dd
2V	A:sus4(b7)	224.724	.	voice	2A 2cc# 2ee
=61	=61	=61	=61	=61	=61
2.I	D:maj(9)	226.596	newline	voice	2D 2f# 2a
4Vb	A:maj/3	229.848	.	voice	4a 4C# 4ee
=62	=62	=62	=62	=62	=62
2.vi7	B:min11	230.932	.	voice	2B 2dd 2ff# 2aa
4vi7d	B:min11/b7	234.183	.	voice	4b 4dd 4ff# 4A
=63	=63	=63	=63	=63	=63
1IV	G:maj6(9)	235.267	.	voice	1G 1b 1dd
=64	=64	=64	=64	=64	=64
2ii7	E:min7	239.602	.	voice	2E 2g 2b 2dd
2V	A:sus4(b7,9)	241.77	.	voice	2A 2cc# 2ee
=65	=65	=65	=65	=65	=65
1I	D:maj(9)	243.938	newline	voice	1D 1f# 1a
1r;	N	254.05	.	r	1r;
1r;	N	257.593	.	r	1r;
*-	*-	*-	*-	*-	*-
!!!OTL: Tell Me What You Want Me To Do
!!!COC: Tevin Campbell
!!!BillboardChartDate: 1991/11/16
!!!BillboardPeak: 6
!!!BillboardWeeksOnChart: 25
!!!SampleTargetRank: 74
!!!SampleActualRank: 74
!!!SampleID#: 1145
!!!RDF**harmony: **recip + pitch class of root + harmonic quality
!!!RDF**harte: Chris Harte's syntax, used by MIREX
!!!RDF**phrase: newline = linebreak in original McGill transcription
!!!RDF**timestamp: McGill audio timestamp in seconds
!!!RDF**leadinstrument: original McGill primary instrumentation annotation
!!!RDT: 2017/01/12/
!!!ENC: Nathaniel Condit-Schultz
!!!EST: Awating manual error checking and editing.
